packages/foundations/assets/icons/functional/images/date & time/clock.svg

<svg xmlns="http://www.w3.org/2000/svg" width="32" height="32" fill="none"><path fill="#1A1C1F" fill-rule="evenodd" d="M14.72 2.06c-1.337.16-2.192.345-3.214.694a14.01 14.01 0 0 0-9.108 9.958 13.97 13.97 0 0 0 2.111 11.263c1.513 2.162 3.665 3.918 6.004 4.898 1.813.759 3.549 1.111 5.487 1.111 2.014 0 3.907-.403 5.746-1.224 3.133-1.398 5.81-4.13 7.127-7.273.76-1.814 1.111-3.55 1.11-5.487-.001-2.779-.782-5.401-2.282-7.665a14.06 14.06 0 0 0-9.621-6.178c-.537-.084-2.898-.153-3.36-.097m3.04 2.074c3.883.583 7.274 3.057 8.983 6.553.876 1.792 1.226 3.309 1.226 5.313 0 .777-.027 1.271-.094 1.707-.534 3.477-2.441 6.452-5.368 8.372-1.079.708-2.675 1.372-3.963 1.65-5.37 1.157-10.888-1.508-13.287-6.416a11.8 11.8 0 0 1-1.133-3.606c-.128-.844-.128-2.57 0-3.414.603-3.954 3.045-7.317 6.563-9.036 1.438-.703 2.776-1.075 4.406-1.224.474-.044 2.118.019 2.667.101m-2 2.901a.97.97 0 0 0-.718.687c-.035.128-.054 1.649-.054 4.331.001 3.926.006 4.144.101 4.347q.1.214 2.279 2.383c2.355 2.345 2.288 2.291 2.778 2.212.502-.082.941-.792.805-1.304-.043-.16-.421-.567-1.994-2.144L17.015 15.6l-.014-3.951-.014-3.95-.147-.222c-.226-.342-.703-.537-1.08-.442"/></svg>

<svg width="32" height="32" viewBox="0 0 32 32" fill="none" xmlns="http://www.w3.org/2000/svg"><path d="M14.720 2.060 C 13.383 2.220,12.528 2.405,11.506 2.754 C 6.954 4.310,3.537 8.045,2.398 12.712 C 1.455 16.573,2.232 20.722,4.509 23.975 C 6.022 26.137,8.174 27.893,10.513 28.873 C 12.326 29.632,14.062 29.984,16.000 29.984 C 18.014 29.984,19.907 29.581,21.746 28.760 C 24.879 27.362,27.556 24.630,28.873 21.487 C 29.633 19.673,29.984 17.937,29.983 16.000 C 29.982 13.221,29.201 10.599,27.701 8.335 C 25.479 4.983,22.049 2.781,18.080 2.157 C 17.543 2.073,15.182 2.004,14.720 2.060 M17.760 4.134 C 21.643 4.717,25.034 7.191,26.743 10.687 C 27.619 12.479,27.969 13.996,27.969 16.000 C 27.969 16.777,27.942 17.271,27.875 17.707 C 27.341 21.184,25.434 24.159,22.507 26.079 C 21.428 26.787,19.832 27.451,18.544 27.729 C 13.174 28.886,7.656 26.221,5.257 21.313 C 4.662 20.096,4.325 19.021,4.124 17.707 C 3.996 16.863,3.996 15.137,4.124 14.293 C 4.727 10.339,7.169 6.976,10.687 5.257 C 12.125 4.554,13.463 4.182,15.093 4.033 C 15.567 3.989,17.211 4.052,17.760 4.134 M15.760 7.035 C 15.404 7.124,15.137 7.380,15.042 7.722 C 15.007 7.850,14.988 9.371,14.988 12.053 C 14.989 15.979,14.994 16.197,15.089 16.400 C 15.155 16.542,15.917 17.338,17.368 18.783 C 19.723 21.128,19.656 21.074,20.146 20.995 C 20.648 20.913,21.087 20.203,20.951 19.691 C 20.908 19.531,20.530 19.124,18.957 17.547 L 17.015 15.600 17.001 11.649 L 16.987 7.699 16.840 7.477 C 16.614 7.135,16.137 6.940,15.760 7.035 " fill="#1A1C1F" stroke="none" fill-rule="evenodd"></path></svg>
